X: 7969
T:Tune from Micho Russell, 2
R:Reel
M:4/4
O:Ireland
Z:transcribed by Andy Hornby, from a recording of a session.
K:EDor
d2dA BAFA| A2dA BAFA| BEEF E4| (3Bcd ef gfed|\
d2 dA BAFA| DAdA BAFA| BEEF E4 \
|1 (3Bcd ef d4 :|2 (3Bcd ef d2 \
|:Ad|\
d2Ad d2Ad| d2ef gfed| d2Ad d2fa| bfaf e2:|
